images/logo-footer.svg

<svg width="36" height="36" viewBox="0 0 36 36" fill="none" xmlns="http://www.w3.org/2000/svg">
<path d="M15.7202 0C14.6381 -1.00158e-07 13.6003 0.429881 12.8351 1.19507L0.815673 13.2147C0.360428 13.67 0.132809 14.2667 0.132813 14.8634C0.132816 15.4601 0.360442 16.0567 0.815686 16.512L8.69241 24.3887V10.444C8.69241 9.40337 9.52942 8.55974 10.5701 8.55974C14.9667 8.55974 25.6687 8.55974 27.1285 8.55974L35.688 0.000121309L15.7202 0Z" fill="#F7F6FF"/>
<path d="M8.6924 26.996H25.2442C26.2848 26.996 27.1285 26.1524 27.1285 25.1117V11.167L35.0052 19.0438C35.4604 19.499 35.688 20.0957 35.688 20.6924C35.688 21.2891 35.4604 21.8858 35.0052 22.341L22.9857 34.3607C22.2206 35.1259 21.1827 35.5558 20.1006 35.5558L0.132812 35.5556L8.6924 26.996Z" fill="#F7F6FF"/>
</svg>

<svg xmlns="http://www.w3.org/2000/svg" width="36" height="36" fill="none"><path fill="#F7F6FF" d="M15.72 0a4.08 4.08 0 0 0-2.885 1.195L.815 13.215a2.324 2.324 0 0 0-.682 1.648c0 .597.227 1.194.683 1.649l7.876 7.877V10.444c0-1.04.837-1.884 1.878-1.884h16.558L35.688 0H15.72ZM8.692 26.996h16.552c1.04 0 1.884-.844 1.884-1.884V11.167l7.877 7.877c.455.455.683 1.052.683 1.648 0 .597-.228 1.194-.683 1.649l-12.02 12.02a4.08 4.08 0 0 1-2.884 1.195H.133l8.56-8.56Z"/></svg>
